X: 2
T: The Noon Lassies
R: reel
M: 4/4
L: 1/8
K: Gmaj
G2 BG AGBG | D2 BG GEDA | G2 BG cBAc | BAGE ED D2 :|
dedB AGAB | dedB AG E2 | de/f/ gB AGAB | GAGE ED D2 :|


Tune 1729	Setting 1729

